X: 6295
T: Carraigban
R: jig
M: 6/8
K: Aminor
EAc BcA|edB GAB|EAc BcA|edB ~A2 G|
EAc BGG|edB ~G2 G|~A2 A Bed|edB ~A3:|
EAc ~d2 ^d|eg^g ~a2 b|Cba bag|eag edb|
EAc ~d2 ^d|eg^g ~a2 C|bag age|edB ~A3:|

